src/status/16/fluxgui-panel.svg

<svg viewBox="0 0 16 16" xmlns="http://www.w3.org/2000/svg">
 <path d="m8 0a8 8 0 0 0-8 8 8 8 0 0 0 0.010286 0.29029c0.271-0.403 0.638-0.888 1.056-1.274 0.867-0.801 2.047-1.489 3.511-1.726 0.363-0.058 0.738-0.089 1.123-0.088 2.691 5e-3 5.905 1.56 9.568 6.123a8 8 0 0 0 0.73171-3.3253 8 8 0 0 0-8-8m-2.297 7.127c-0.296-8e-3 -0.575 0.013-0.833 0.054-1.035 0.166-1.87 0.656-2.505 1.244-0.623 0.575-1.694 1.978-1.854 2.391a8 8 0 0 0 7.489 5.184 8 8 0 0 0 6.2434-3.0057c-2.2694-2.3653-5.2974-5.7033-8.5344-5.8633" fill="#2e3440"/>
</svg>

<svg viewBox="0 0 16 16" xmlns="http://www.w3.org/2000/svg">
 <path d="M 8 0 A 8 8 0 0 0 0 8 8 8 0 0 0 0.010286 8.290286 c 0.271 -0.403 0.638 -0.888 1.056 -1.274 0.867 -0.801 2.047 -1.489 3.511 -1.726 0.363 -0.058 0.738 -0.089 1.123 -0.088 2.691 0.005 5.905 1.56 9.568 6.123 A 8 8 0 0 0 16 8 8 8 0 0 0 8 0 M 5.703 7.127 c -0.296 -0.008 -0.575 0.013 -0.833 0.054 C 3.835 7.347 3 7.837 2.365 8.425 1.742 9 0.671 10.403 0.511 10.816 A 8 8 0 0 0 8 16 8 8 0 0 0 14.243429 12.994286 C 11.974 10.629 8.946 7.291 5.709 7.131" style="fill:#2e3440;opacity:1;fill-opacity:1;stroke:none;fill-rule:nonzero"/>
</svg>
